X: 77
T: Mary Had a Litle Lamb
%R: air, march
B: "The Everyday Song Book", 1927
F: http://www.library.pitt.edu/happybirthday/pdf/The_Everyday_Song_Book.pdf
Z: 2017 John Chambers <jc:trillian.mit.edu>
M: C
L: 1/4
K: F
% - - - - - - - - - - - - - - - - - - - - - - - - - - - - -
A/ | A> G F G | A A A2 | G G G2 | A c c>- c |
w: 1.~ Ma-ry had a lit-tle lamb,            Lit-tle lamb, lit-tle lamb;_
w: 2.~And ev-'ry-where that Ma-ry went,     Ma-ry went, Ma-ry went;         And
w: 3.~It fol-lowed her to school one day,   School one day, school one day; It
w: 4.~It made the chil-dren laugh and play, Laugh and play, laugh and play; It
w: 5.~And so the teach-er turned him out,   Turned him out, turned him out; And
w: 6.~And wait-ed pa-tient-ly a-bout,       Pa-tient-ly, pa-tient-ly;       And
%
A> G F G | A A A A | G G A> G | F2 z z/ |]
w: Ma-ry had a lit-tle lamb,         Its fleece was white as snow.
w: ev-'ry-where that Ma-ry went      The lamb was sure to go.
w: fol-lowed her to school one day,  Which was a-gainst the rule.
w: made the chil-dren laugh and play To see the lamb at school.
w: so the teach-er turned him out,   But still he lin-gered near.
w: wait-ed pa-tient-ly a-bout        Till Ma-ry did ap-pear.
% - - - - - - - - - - - - - - - - - - - - - - - - - - - - -

%%sep 1 1 500
%%sep 1 1 500

